icons/black/androbd.svg

<svg xmlns="http://www.w3.org/2000/svg" viewBox="0 0 48 48"><defs><style>.a{fill:none;stroke:#000ff4;stroke-linecap:round;stroke-linejoin:round;}</style></defs><path class="a" d="M6.48,18.86A5.25,5.25,0,0,1,4.83,17.4c-.42-.64-.63-1.51.56-2.62a13.21,13.21,0,0,1,6.21-2.86c2.46-.4,4.81.17,7-.25s4.09-1.79,6.6-2.37a20.9,20.9,0,0,1,8.51.26c2.93.59,5.72,1.56,7.41,1.8s2.32-.24,2.41.39a18.14,18.14,0,0,1-.72,4.15m-9.49,4-4.48,4.5m9.54-6.64a2.73,2.73,0,0,1-2.73,2.73h0a2.74,2.74,0,0,1-2.74-2.73h0A2.74,2.74,0,0,1,35.6,15h0a2.73,2.73,0,0,1,2.73,2.73ZM27.05,20.46V12.24m0,4.83A2.05,2.05,0,0,0,25,15h0a2.05,2.05,0,0,0-2.06,2.05v1.34A2.05,2.05,0,0,0,25,20.46h0a2.05,2.05,0,0,0,2.05-2.05M16.41,17.07V15m4.11,5.44V17.07A2.06,2.06,0,0,0,18.46,15h0a2.05,2.05,0,0,0-2.05,2.05v3.39m-2.42,0V15m0,3.39a2.06,2.06,0,0,1-2.06,2.05h0a2.05,2.05,0,0,1-2-2.05V17.07a2.05,2.05,0,0,1,2-2.05h0A2.06,2.06,0,0,1,14,17.07M29.47,15v5.44m0-3.39A2.06,2.06,0,0,1,31.53,15h0m3.21,24V22.59m0,9.66a4.14,4.14,0,0,0-4.15-4.11h0a4.14,4.14,0,0,0-4.15,4.11v2.67A4.14,4.14,0,0,0,30.59,39h0a4.14,4.14,0,0,0,4.15-4.11M13.52,39V22.59m0,9.66a4.14,4.14,0,0,1,4.15-4.11h0a4.15,4.15,0,0,1,4.16,4.11v2.67A4.15,4.15,0,0,1,17.67,39h0a4.14,4.14,0,0,1-4.15-4.11"/></svg>

<?xml version="1.0" encoding="utf-8"?>
<!-- Generator: Adobe Illustrator 25.2.3, SVG Export Plug-In . SVG Version: 6.00 Build 0)  -->
<svg version="1.1" id="Layer_1" xmlns="http://www.w3.org/2000/svg" xmlns:xlink="http://www.w3.org/1999/xlink" x="0px" y="0px"
	 viewBox="0 0 48 48" style="enable-background:new 0 0 48 48;" xml:space="preserve">
<style type="text/css">
	.st0{fill:none;stroke:#000000;stroke-linecap:round;stroke-linejoin:round;}
</style>
<path class="st0" d="M6.5,18.9c-0.6-0.4-1.2-0.9-1.7-1.5c-0.4-0.6-0.6-1.5,0.6-2.6c1.8-1.5,3.9-2.5,6.2-2.9c2.5-0.4,4.8,0.2,7-0.2
	s4.1-1.8,6.6-2.4c2.8-0.5,5.7-0.4,8.5,0.3c2.9,0.6,5.7,1.6,7.4,1.8s2.3-0.2,2.4,0.4c-0.1,1.4-0.3,2.8-0.7,4.2 M33.3,19.9l-4.5,4.5
	 M38.4,17.8c0,1.5-1.2,2.7-2.7,2.7l0,0c-1.5,0-2.7-1.2-2.7-2.7l0,0c0-1.5,1.2-2.7,2.7-2.8l0,0C37.1,15,38.3,16.2,38.4,17.8
	L38.4,17.8z M27,20.5v-8.2 M27,17.1c0-1.1-0.9-2.1-2-2.1c0,0,0,0,0,0l0,0c-1.1,0-2.1,0.9-2.1,2c0,0,0,0,0,0v1.3c0,1.1,0.9,2.1,2,2.1
	c0,0,0,0,0,0l0,0c1.1,0,2-0.9,2-2 M16.4,17.1V15 M20.5,20.4v-3.4c0-1.1-0.9-2.1-2-2.1c0,0,0,0,0,0l0,0c-1.1,0-2,0.9-2,2v3.4
	 M14,20.4V15 M14,18.4c0,1.1-0.9,2.1-2.1,2l0,0c-1.1,0-2-0.9-2-2v-1.3c0-1.1,0.9-2,2-2.1l0,0c1.1,0,2.1,0.9,2.1,2c0,0,0,0,0,0
	 M29.5,15v5.4 M29.5,17.1c0-1.1,0.9-2.1,2.1-2.1l0,0 M34.7,39V22.6 M34.7,32.2c0-2.3-1.9-4.1-4.1-4.1l0,0c-2.3,0-4.1,1.8-4.1,4.1
	v2.7c0,2.3,1.9,4.1,4.1,4.1l0,0c2.3,0,4.1-1.8,4.2-4.1 M13.5,39V22.6 M13.5,32.2c0-2.3,1.9-4.1,4.1-4.1l0,0c2.3,0,4.1,1.8,4.2,4.1
	v2.7c0,2.3-1.9,4.1-4.2,4.1l0,0c-2.3,0-4.1-1.8-4.1-4.1"/>
</svg>
